X: 7
T: The Hills Of Glenorchy
R: jig
M: 6/8
L: 1/8
K: Edor
d |: c | B2E E>FE | BAB d2B | ABA D>DD | FDF Adc |B2E E>FE | B>AB e3 | dcd AFD | E3 E2 :|||: B | efe edB | efg gfe | ded d>BA | def fed |efe edB | efg gfe | dcd AFD | E3 E2 :|


Tune 842	Setting 842

